X: 38748
T: String Trader, The
R: reel
M: 4/4
K: Eminor
GEED E2GA|Beed BAGB|A3F AdBA|Beed BAGF|
GEED E2GA|Beed BAGB|A3F AdBA|BEED E4:|
efed efga|beed e2fe|d2dB ABde|faaf gfed|
efed efga|beed e2fe|d2dB ABdB|AFED E4:|

